source/images/icons/icon-utility/menu.svg

<?xml version="1.0" encoding="UTF-8"?>
<svg width="24px" height="24px" viewBox="0 0 24 24" version="1.1" xmlns="http://www.w3.org/2000/svg" xmlns:xlink="http://www.w3.org/1999/xlink">
    <!-- Generator: Sketch 55.2 (78181) - https://sketchapp.com -->
    <title>Icons/24px/Menu</title>
    <desc>Created with Sketch.</desc>
    <g id="Icons/24px/Menu" stroke="none" stroke-width="1" fill="none" fill-rule="evenodd">
        <path d="M3,13 C2.44771525,13 2,12.5522847 2,12 C2,11.4477153 2.44771525,11 3,11 L21,11 C21.5522847,11 22,11.4477153 22,12 C22,12.5522847 21.5522847,13 21,13 L3,13 Z M3.17647059,7 C2.52672382,7 2,6.55228475 2,6 C2,5.44771525 2.52672382,5 3.17647059,5 L20.8235294,5 C21.4732762,5 22,5.44771525 22,6 C22,6.55228475 21.4732762,7 20.8235294,7 L3.17647059,7 Z M3,19 C2.44771525,19 2,18.5522847 2,18 C2,17.4477153 2.44771525,17 3,17 L13,17 C13.5522847,17 14,17.4477153 14,18 C14,18.5522847 13.5522847,19 13,19 L3,19 Z M17,17 L21,17 C21.5522847,17 22,17.4477153 22,18 C22,18.5522847 21.5522847,19 21,19 L17,19 C16.4477153,19 16,18.5522847 16,18 C16,17.4477153 16.4477153,17 17,17 Z" id="Icon" fill="#ADB5BD"></path>
    </g>
</svg>

<svg width="24" height="24">
    <title>
        Icons/24px/Menu
    </title>
    <path d="M3 13a1 1 0 0 1 0-2h18a1 1 0 0 1 0 2H3zm.176-6C2.526 7 2 6.552 2 6s.527-1 1.176-1h17.648C21.474 5 22 5.448 22 6s-.527 1-1.176 1H3.176zM3 19a1 1 0 0 1 0-2h10a1 1 0 0 1 0 2H3zm14-2h4a1 1 0 0 1 0 2h-4a1 1 0 0 1 0-2z" fill="#ADB5BD" fill-rule="evenodd"/>
</svg>
